svg/sport/baseball_line.svg

<?xml version="1.0" encoding="UTF-8"?>
<svg width="24px" height="24px" viewBox="0 0 24 24" version="1.1" xmlns="http://www.w3.org/2000/svg" xmlns:xlink="http://www.w3.org/1999/xlink">
    <title>baseball_line</title>
    <g id="Icon" stroke="none" stroke-width="1" fill="none" fill-rule="evenodd">
        <g id="Sport" transform="translate(-384.000000, 0.000000)">
            <g id="baseball_line" transform="translate(384.000000, 0.000000)">
                <path d="M24,0 L24,24 L0,24 L0,0 L24,0 Z M12.5935,23.2578 L12.5819,23.2595 L12.5109,23.295 L12.4919,23.2987 L12.4767,23.295 L12.4057,23.2595 C12.3958,23.2564 12.387,23.259 12.3821,23.2649 L12.378,23.2758 L12.3609,23.7031 L12.3659,23.7235 L12.3769,23.7357 L12.4805,23.8097 L12.4953,23.8136 L12.5071,23.8097 L12.6107,23.7357 L12.6233,23.7197 L12.6267,23.7031 L12.6096,23.2758 C12.6076,23.2657 12.601,23.2593 12.5935,23.2578 Z M12.8584,23.1453 L12.8445,23.1473 L12.6598,23.2397 L12.6499,23.2499 L12.6472,23.2611 L12.6651,23.6906 L12.6699,23.7034 L12.6784,23.7105 L12.8793,23.8032 C12.8914,23.8069 12.9022,23.803 12.9078,23.7952 L12.9118,23.7812 L12.8777,23.1665 C12.8753,23.1546 12.8674,23.147 12.8584,23.1453 Z M12.143,23.1473 C12.1332,23.1424 12.1222,23.1453 12.1156,23.1526 L12.1099,23.1665 L12.0758,23.7812 C12.0751,23.7927 12.0828,23.8019 12.0926,23.8046 L12.1083,23.8032 L12.3092,23.7105 L12.3186,23.7024 L12.3225,23.6906 L12.3404,23.2611 L12.3372,23.2485 L12.3278,23.2397 L12.143,23.1473 Z" id="MingCute" fill-rule="nonzero"></path>
                <path d="M12,2 C17.5228,2 22,6.47715 22,12 C22,17.5228 17.5228,22 12,22 C6.47715,22 2,17.5228 2,12 C2,6.47715 6.47715,2 12,2 Z M12,4 C10.3312,4 8.78177,4.51096 7.49958,5.38497 C7.90955,5.84949 8.27713,6.35254 8.59617,6.88797 L8.64035,6.86737 C9.14089,6.63396 9.73587,6.85052 9.96927,7.35106 C10.1860264,7.81584714 10.014764,8.36206469 9.58843173,8.62460552 L9.44247,8.70009 C9.69814,9.43165 9.87124,10.202 9.95051,10.9999 L9.99992,10.9999 C10.5522,10.9999 10.9999,11.4476 10.9999,11.9999 C10.9999,12.5522 10.5522,12.9999 9.99992,12.9999 L9.9505,12.9999 C9.87123,13.7977 9.69813,14.5681 9.44247,15.2996 L9.48558,15.3197 C9.98612,15.5531 10.2027,16.1481 9.96927,16.6486 C9.73587,17.1491 9.14089,17.3657 8.64035,17.1323 L8.59618,17.1117 C8.27709,17.6472 7.90945,18.1503 7.4994,18.6149 C8.78163,19.489 10.3311,20 12,20 C13.6689,20 15.2184,19.489 16.5006,18.6149 C16.0905,18.1503 15.7229,17.6472 15.4038,17.1117 L15.3597,17.1323 C14.8591,17.3657 14.2641,17.1491 14.0307,16.6486 C13.7973,16.1481 14.0139,15.5531 14.5144,15.3197 L14.5575,15.2996 C14.3019,14.5681 14.1288,13.7977 14.0495,12.9999 L14.0001,12.9999 C13.4478,12.9999 13.0001,12.5522 13.0001,11.9999 C13.0001,11.4476 13.4478,10.9999 14.0001,10.9999 L14.0495,10.9999 C14.1288,10.202 14.3019,9.43165 14.5575,8.70009 L14.5144,8.67999 C14.0139,8.44658 13.7973,7.8516 14.0307,7.35106 C14.2641,6.85052 14.8591,6.63396 15.3597,6.86737 L15.4038,6.88797 C15.7229,6.35254 16.0904,5.84949 16.5004,5.38497 C15.2182,4.51096 13.6688,4 12,4 Z M17.9999,6.70828 C17.7157,7.03032 17.457,7.37532 17.227,7.74015 C17.6883,7.99018 17.8807,8.55963 17.656,9.04153 C17.4311,9.52378 16.8706,9.74242 16.3823,9.54901 C16.2322,10.016 16.1239,10.5017 16.0617,11.0018 C16.5853,11.0336 17.0001,11.4683 17.0001,11.9999 C17.0001,12.5315 16.5853,12.9662 16.0617,12.998 C16.1239,13.498 16.2322,13.9837 16.3822,14.4507 C16.8706,14.2572 17.4311,14.4759 17.656,14.9581 C17.8807,15.44 17.6883,16.0095 17.227,16.2595 C17.457,16.6244 17.7157,16.9695 18.0001,17.2916 C19.2448,15.8813 20,14.0288 20,12 C20,9.97107 19.2447,8.11856 17.9999,6.70828 Z M6.00006,6.70828 C4.7553,8.11856 4,9.97107 4,12 C4,14.0288 4.75524,15.8813 5.99992,17.2916 C6.28426,16.9695 6.54301,16.6244 6.77303,16.2595 C6.3117,16.0095 6.11932,15.44 6.34404,14.9581 C6.56892,14.4759 7.12943,14.2572 7.61775,14.4507 C7.76782,13.9837 7.87613,13.498 7.93833,12.998 C7.41472,12.9662 6.99992,12.5315 6.99992,11.9999 C6.99992,11.4683 7.41473,11.0336 7.93833,11.0018 C7.87614,10.5017 7.76783,10.016 7.61775,9.54901 C7.12943,9.74242 6.56892,9.52378 6.34404,9.04153 C6.11933,8.55963 6.31169,7.99018 6.77302,7.74015 C6.54304,7.37532 6.28435,7.03032 6.00006,6.70828 Z" id="形状" fill="#09244B"></path>
            </g>
        </g>
    </g>
</svg>

<svg xmlns="http://www.w3.org/2000/svg" width="24" height="24"><g fill="none" fill-rule="evenodd"><path d="M24 0v24H0V0h24ZM12.594 23.258l-.012.002-.071.035-.02.004-.014-.004-.071-.036c-.01-.003-.019 0-.024.006l-.004.01-.017.428.005.02.01.013.104.074.015.004.012-.004.104-.074.012-.016.004-.017-.017-.427c-.002-.01-.009-.017-.016-.018Zm.264-.113-.014.002-.184.093-.01.01-.003.011.018.43.005.012.008.008.201.092c.012.004.023 0 .029-.008l.004-.014-.034-.614c-.003-.012-.01-.02-.02-.022Zm-.715.002a.023.023 0 0 0-.027.006l-.006.014-.034.614c0 .012.007.02.017.024l.015-.002.201-.093.01-.008.003-.011.018-.43-.003-.012-.01-.01-.184-.092Z"/><path fill="#09244B" d="M12 2c5.523 0 10 4.477 10 10s-4.477 10-10 10S2 17.523 2 12 6.477 2 12 2Zm0 2a7.963 7.963 0 0 0-4.5 1.385c.41.464.777.968 1.096 1.503l.044-.02a1 1 0 0 1 .948 1.757l-.146.075c.256.732.43 1.502.509 2.3H10a1 1 0 1 1 0 2h-.05a9.946 9.946 0 0 1-.508 2.3l.044.02a1 1 0 1 1-.846 1.812l-.044-.02c-.319.535-.687 1.038-1.097 1.503A7.963 7.963 0 0 0 12 20a7.963 7.963 0 0 0 4.5-1.385c-.41-.465-.777-.968-1.096-1.503l-.044.02a1 1 0 0 1-.846-1.812l.043-.02a9.95 9.95 0 0 1-.508-2.3H14a1 1 0 1 1 0-2h.05c.079-.798.252-1.568.507-2.3l-.043-.02a1 1 0 0 1 .846-1.813l.044.021c.319-.535.686-1.039 1.096-1.503A7.963 7.963 0 0 0 12 4Zm6 2.708a8.039 8.039 0 0 0-.773 1.032 1 1 0 0 1-.845 1.809c-.15.467-.258.953-.32 1.453a1 1 0 0 1 0 1.996c.062.5.17.986.32 1.453a1 1 0 0 1 .845 1.808c.23.365.489.71.773 1.033A7.97 7.97 0 0 0 20 12a7.97 7.97 0 0 0-2-5.292Zm-12 0A7.97 7.97 0 0 0 4 12a7.97 7.97 0 0 0 2 5.292 8.03 8.03 0 0 0 .773-1.033 1 1 0 0 1 .845-1.808c.15-.467.258-.953.32-1.453a1 1 0 0 1 0-1.996c-.062-.5-.17-.986-.32-1.453a1 1 0 0 1-.845-1.809A8.029 8.029 0 0 0 6 6.708Z"/></g></svg>
